X: 11524
M: 6/8
L: 1/8
K: Gm
(a>g)f (d>e)d | (c>d)B A2G/^F/ | G2A (Bcd) | ({d}cB)A G2 |]
d |\
g2g f2d | (c>d)B A2G/^F/ | G2g (ga)b | (a>g)^f g2a |\
(ba)g a2g/f/ | d2c/B/ A2G/^F/ | G2A (B>c)d | ({d}cB)A G2 |]


